src/assets/skills/css.svg

<svg width="426" height="479" fill="none" xmlns="http://www.w3.org/2000/svg"><path d="m385.5 432-172.8 46.6L39.9 432 0 0h425.3l-39.8 432Z" fill="#2062AF"/><path d="M212.7 35v406.4l.4.2 139.8-37.7 32.3-369H212.7v.1Z" fill="#3C9CD7"/><path d="M212.5 143 88.8 194.5l4.1 51 119.6-51.1L339.7 140l5.3-52.2L212.5 143Z" fill="#fff"/><path d="m88.8 194.5 4.1 51 119.6-51.1V143L88.8 194.5Z" fill="url(#a)"/><path d="M345 87.8 212.5 143v51.4L339.7 140l5.3-52.2Z" fill="url(#b)"/><path d="m89 194.5 4.1 51 183.5.6-4.1 68-60.4 17-58-14.6-3.5-42.2h-54l7 81.4L212.8 388l108.4-31.7 14.1-161.8H89Z" fill="url(#c)"/><path opacity=".1" d="M212.5 194.5H88.8l4.1 51 119.6.4v-51.4Zm0 136.5-.6.1-58-14.6-3.5-42.2h-54l7 81.4L212.6 388v-57h-.1Z" fill="#000"/><path d="M77.7 87.8H345l-5.3 52.2H84.2l-6.5-52.2Z" fill="url(#d)"/><path opacity=".1" d="M212.5 87.8H77.7l6.5 52.2h128.3V87.8Z" fill="#000"/><defs><linearGradient id="a" x1="150.7" y1="245.5" x2="150.7" y2="143" gradientUnits="userSpaceOnUse"><stop offset=".4" stop-color="#D1D3D4" stop-opacity="0"/><stop offset="1" stop-color="#D1D3D4"/></linearGradient><linearGradient id="b" x1="278.7" y1="194.4" x2="278.7" y2="87.8" gradientUnits="userSpaceOnUse"><stop offset=".4" stop-color="#D1D3D4" stop-opacity="0"/><stop offset="1" stop-color="#D1D3D4"/></linearGradient><linearGradient id="c" x1="89" y1="291.3" x2="335.2" y2="291.3" gradientUnits="userSpaceOnUse"><stop stop-color="#E8E7E5"/><stop offset="1" stop-color="#fff"/></linearGradient><linearGradient id="d" x1="77.7" y1="113.9" x2="345" y2="113.9" gradientUnits="userSpaceOnUse"><stop stop-color="#E8E7E5"/><stop offset="1" stop-color="#fff"/></linearGradient></defs></svg>

<svg width="426" height="479" viewBox="0 0 426 479" fill="none" xmlns="http://www.w3.org/2000/svg">
<path d="M385.5 432L212.7 478.6L39.9 432L0 0H425.3L385.5 432Z" fill="#2062AF"/>
<path d="M212.7 35V441.4L213.1 441.6L352.9 403.9L385.2 34.9H212.7V35Z" fill="#3C9CD7"/>
<path d="M212.5 143L88.8 194.5L92.9 245.5L212.5 194.4L339.7 140L345 87.8L212.5 143Z" fill="white"/>
<path d="M88.8 194.5L92.9 245.5L212.5 194.4V143L88.8 194.5Z" fill="url(#paint0_linear)"/>
<path d="M345 87.8L212.5 143V194.4L339.7 140L345 87.8Z" fill="url(#paint1_linear)"/>
<path d="M89 194.5L93.1 245.5L276.6 246.1L272.5 314.1L212.1 331.1L154.1 316.5L150.6 274.3H96.6L103.6 355.7L212.8 388L321.2 356.3L335.3 194.5H89Z" fill="url(#paint2_linear)"/>
<path opacity="0.1" d="M212.5 194.5H88.8L92.9 245.5L212.5 245.9V194.5ZM212.5 331L211.9 331.1L153.9 316.5L150.4 274.3H96.4L103.4 355.7L212.6 388V331H212.5Z" fill="black"/>
<path d="M77.7 87.8H345L339.7 140H84.2L77.7 87.8Z" fill="url(#paint3_linear)"/>
<path opacity="0.1" d="M212.5 87.8H77.7L84.2 140H212.5V87.8Z" fill="black"/>
<defs>
<linearGradient id="paint0_linear" x1="150.7" y1="245.5" x2="150.7" y2="143" gradientUnits="userSpaceOnUse">
<stop offset="0.4" stop-color="#D1D3D4" stop-opacity="0"/>
<stop offset="1" stop-color="#D1D3D4"/>
</linearGradient>
<linearGradient id="paint1_linear" x1="278.7" y1="194.4" x2="278.7" y2="87.8" gradientUnits="userSpaceOnUse">
<stop offset="0.4" stop-color="#D1D3D4" stop-opacity="0"/>
<stop offset="1" stop-color="#D1D3D4"/>
</linearGradient>
<linearGradient id="paint2_linear" x1="89" y1="291.3" x2="335.2" y2="291.3" gradientUnits="userSpaceOnUse">
<stop stop-color="#E8E7E5"/>
<stop offset="1" stop-color="white"/>
</linearGradient>
<linearGradient id="paint3_linear" x1="77.7" y1="113.9" x2="345" y2="113.9" gradientUnits="userSpaceOnUse">
<stop stop-color="#E8E7E5"/>
<stop offset="1" stop-color="white"/>
</linearGradient>
</defs>
</svg>
